Yosa-Max-Dark/actions/22x22/browser-download.svg

<?xml version="1.0" encoding="UTF-8"?>
<svg id="svg6" version="1.1" viewBox="0 0 22 22" xmlns="http://www.w3.org/2000/svg">
 <defs id="defs3051">
  <style id="current-color-scheme" type="text/css">.ColorScheme-Text {
        color:#dfdfdf;
      }</style>
  <style id="current-color-scheme-6" type="text/css">.ColorScheme-Text {
        color:#dfdfdf;
      }</style>
  <style id="current-color-scheme-5" type="text/css">.ColorScheme-Text {
        color:#dfdfdf;
      }</style>
 </defs>
 <path id="path823" d="m3 3v0.0019531 1 14.998047h1 15v-1-10.998047-0.6992187h-0.007812l0.007812-0.0097656-3.292969-3.2929688-0.007812 0.0097656v-0.0097656h-0.699219-12zm2 2h2.5722656v3.4277344 0.8574218h6.8554684v-0.8574218-3.4277344h0.251954l2.320312 2.3203125v0.2519531 9.4277344h-0.751953-0.962891-2-4.5703122-2-1.2441407-0.4707031v-12z" style="fill:#dfdfdf"/>
</svg>

<?xml version="1.0" encoding="UTF-8" standalone="no"?>
<svg
   xmlns:dc="http://purl.org/dc/elements/1.1/"
   xmlns:cc="http://creativecommons.org/ns#"
   xmlns:rdf="http://www.w3.org/1999/02/22-rdf-syntax-ns#"
   xmlns:svg="http://www.w3.org/2000/svg"
   xmlns="http://www.w3.org/2000/svg"
   xmlns:sodipodi="http://sodipodi.sourceforge.net/DTD/sodipodi-0.dtd"
   xmlns:inkscape="http://www.inkscape.org/namespaces/inkscape"
   id="svg6"
   version="1.1"
   viewBox="0 0 22 22"
   sodipodi:docname="document-save.svg"
   inkscape:version="0.92.2 5c3e80d, 2017-08-06">
  <sodipodi:namedview
     pagecolor="#ffffff"
     bordercolor="#666666"
     borderopacity="1"
     objecttolerance="10"
     gridtolerance="10"
     guidetolerance="10"
     inkscape:pageopacity="0"
     inkscape:pageshadow="2"
     inkscape:window-width="640"
     inkscape:window-height="480"
     id="namedview9"
     showgrid="false"
     inkscape:object-paths="true"
     inkscape:zoom="30.341309"
     inkscape:cx="6.7615778"
     inkscape:cy="10.030693"
     inkscape:current-layer="svg6" />
  <metadata
     id="metadata10">
    <rdf:RDF>
      <cc:Work
         rdf:about="">
        <dc:format>image/svg+xml</dc:format>
        <dc:type
           rdf:resource="http://purl.org/dc/dcmitype/StillImage" />
        <dc:title />
      </cc:Work>
    </rdf:RDF>
  </metadata>
  <defs
     id="defs3051">
    <style
       id="current-color-scheme"
       type="text/css">
      .ColorScheme-Text {
        color:#dfdfdf;
      }
      </style>
    <style
       type="text/css"
       id="current-color-scheme-6">
      .ColorScheme-Text {
        color:#dfdfdf;
      }
      </style>
    <style
       type="text/css"
       id="current-color-scheme-5">
      .ColorScheme-Text {
        color:#dfdfdf;
      }
      </style>
  </defs>
  <path
     style="fill:#dfdfdf;fill-opacity:1;stroke:none;stroke-width:1"
     d="M 3 3 L 3 3.0019531 L 3 4.0019531 L 3 19 L 4 19 L 19 19 L 19 18 L 19 7.0019531 L 19 6.3027344 L 18.992188 6.3027344 L 19 6.2929688 L 15.707031 3 L 15.699219 3.0097656 L 15.699219 3 L 15 3 L 3 3 z M 5 5 L 7.5722656 5 L 7.5722656 8.4277344 L 7.5722656 9.2851562 L 14.427734 9.2851562 L 14.427734 8.4277344 L 14.427734 5 L 14.679688 5 L 17 7.3203125 L 17 7.5722656 L 17 17 L 16.248047 17 L 15.285156 17 L 13.285156 17 L 8.7148438 17 L 6.7148438 17 L 5.4707031 17 L 5 17 L 5 5 z "
     id="path823" />
</svg>
